src/assets/img/unsorted/emotes/11.svg

<svg xmlns:xlink="http://www.w3.org/1999/xlink" height="100.8" width="132.65" xmlns="http://www.w3.org/2000/svg"><g transform="translate(77.75 73.55)"><use height="7.65" transform="translate(-12.25 -5.6)" width="24.45" xlink:href="#a"/><use height="13" transform="translate(-8.589 -8.783) scale(.8127)" width="10.75" xlink:href="#b"/><use height="8.8" transform="translate(-7.65 2.75)" width="15.2" xlink:href="#c"/><use height="25.7" transform="translate(7.35 -23.05)" width="22.15" xlink:href="#d"/></g><defs><g id="a"><path d="m.35-1.35.6.05 5.45.7q2.5.5 5.1 1.4l.7.85-3.15.25-1.7-.15-2.5-.2L.9 1.4l-6.3.1-2.5.25h-.25l-.6.1-3.45-.1-.05-.15q0-.7 2.35-1.6l3.15-.75.05-.05 5.45-.55h1.6" fill-opacity=".153" fill-rule="evenodd" transform="translate(12.25 5.6)"/><path d="m1.35-3.1-.05.7-.2.1.25-.85v.05" fill="#fff" fill-rule="evenodd" transform="translate(12.25 5.6)"/><path d="m8-4.9-.9-.15Q4-5.5 2.3-3.15l.15-.1q2-.95 4.25.25l.65.4" fill="none" stroke="#666" stroke-linecap="round" stroke-linejoin="round" transform="translate(12.25 5.6)"/></g><g id="e"><path d="M0-6q2 0 3.45 1.75Q4.85-2.5 4.85 0t-1.4 4.25Q2 6 0 6q-2.05 0-3.45-1.75Q-4.9 2.5-4.9 0t1.45-4.25Q-2.05-6 0-6" fill="#fff" fill-rule="evenodd" transform="translate(5.4 6.5)"/><path d="M0-6q2 0 3.45 1.75Q4.85-2.5 4.85 0t-1.4 4.25Q2 6 0 6q-2.05 0-3.45-1.75Q-4.9 2.5-4.9 0t1.45-4.25Q-2.05-6 0-6Z" fill="none" stroke="#666" stroke-linecap="round" stroke-linejoin="round" transform="translate(5.4 6.5)"/><path d="m0-.1.2.5q.15.25.4.3L1 .4l.2-.5L1-.75l-.4-.2q-.25 0-.4.2L0-.1m1-1.75q.65-.05 1.15.6.5.65.5 1.65 0 .95-.5 1.6-.5.65-1.15.65-.7 0-1.2-.65-.45-.65-.45-1.6 0-1 .45-1.65.5-.65 1.2-.6" fill-rule="evenodd" transform="translate(5.4 6.5)"/><path d="m0-.1.2-.65q.15-.2.4-.2l.4.2.2.65-.2.5-.4.3Q.35.65.2.4L0-.1" fill="#fff" fill-rule="evenodd" transform="translate(5.4 6.5)"/></g><g id="c"><path d="M5.4 3.25v1.9l-10.9 1.1V4l10.9-.75" fill="#fff" fill-rule="evenodd" transform="translate(7.65 -2.75)"/><path d="M-5.5 4v2.25l10.9-1.1v-1.9l1.4.15q1.15 2.3-2.95 6.5-2.7-3.4-6-1.25l-1.8 1.3Q-6.45 8.05-7 6.6q-.55-1.5.7-2.4l.8-.2" fill-rule="evenodd" transform="translate(7.65 -2.75)"/><path d="m-3.95 9.95 1.8-1.3q3.3-2.15 6 1.25-1.45 1.05-3.3 1.15-2.15 0-4.5-1.1" fill="#c00" fill-rule="evenodd" transform="translate(7.65 -2.75)"/><path d="m-5.5 4-.8.2q-1.25.9-.7 2.4.55 1.45 3.05 3.35 2.35 1.1 4.5 1.1 1.85-.1 3.3-1.15 4.1-4.2 2.95-6.5l-1.4-.15L-5.5 4Z" fill="none" stroke="#333" stroke-linecap="round" stroke-linejoin="round" transform="translate(7.65 -2.75)"/></g><g id="g" fill-rule="evenodd"><path d="m2.45-1.55 4.4.65-3.2 3.05.75 4.35L.5 4.45-3.45 6.5l.75-4.35L-5.85-.9l4.35-.65 2-3.95 1.95 3.95" fill="#600" transform="translate(6.35 6)"/><path d="m6.35-1.4-3.2 3.05L3.9 6 0 3.95-3.95 6l.75-4.35-3.15-3.05L-2-2.05 0-6l1.95 3.95 4.4.65" fill="#fc0" transform="translate(6.35 6)"/></g><use height="13" width="10.75" xlink:href="#e" id="b"/><use height="12.5" transform="matrix(.0379 0 0 .0423 15.759 20.846)" width="13.2" xlink:href="#f" id="d"/><use height="12.5" width="13.2" xlink:href="#g" id="f"/></defs></svg>

<?xml version="1.0" encoding="UTF-8" standalone="no"?>
<svg xmlns:xlink="http://www.w3.org/1999/xlink" height="100.8px" width="132.65px" xmlns="http://www.w3.org/2000/svg">
  <g transform="matrix(1.0, 0.0, 0.0, 1.0, 77.75, 73.55)">
    <use height="7.65" transform="matrix(1.0, 0.0, 0.0, 1.0, -12.25, -5.6)" width="24.45" xlink:href="#shape0"/>
    <use height="13.0" transform="matrix(0.8127, 0.0, 0.0, 0.8127, -8.5888, -8.7828)" width="10.75" xlink:href="#sprite0"/>
    <use height="8.8" transform="matrix(1.0, 0.0, 0.0, 1.0, -7.65, 2.75)" width="15.2" xlink:href="#shape2"/>
    <use height="25.7" transform="matrix(1.0, 0.0, 0.0, 1.0, 7.35, -23.05)" width="22.15" xlink:href="#sprite1"/>
  </g>
  <defs>
    <g id="shape0" transform="matrix(1.0, 0.0, 0.0, 1.0, 12.25, 5.6)">
      <path d="M0.35 -1.35 L0.95 -1.3 6.4 -0.6 Q8.9 -0.1 11.5 0.8 L12.2 1.65 9.05 1.9 7.35 1.75 4.85 1.55 0.9 1.4 -5.4 1.5 -7.9 1.75 -8.15 1.75 -8.75 1.85 -12.2 1.75 -12.25 1.6 Q-12.25 0.9 -9.9 0.0 L-6.75 -0.75 -6.7 -0.8 -1.25 -1.35 0.35 -1.35" fill="#000000" fill-opacity="0.15294118" fill-rule="evenodd" stroke="none"/>
      <path d="M1.35 -3.1 L1.3 -2.4 1.1 -2.3 1.35 -3.15 1.35 -3.1" fill="#ffffff" fill-rule="evenodd" stroke="none"/>
      <path d="M8.0 -4.9 L7.1 -5.05 Q4.0 -5.5 2.3 -3.15 L2.45 -3.25 Q4.45 -4.2 6.7 -3.0 L7.35 -2.6" fill="none" stroke="#666666" stroke-linecap="round" stroke-linejoin="round" stroke-width="1.0"/>
    </g>
    <g id="sprite0" transform="matrix(1.0, 0.0, 0.0, 1.0, 5.4, 6.5)">
      <use height="13.0" transform="matrix(1.0, 0.0, 0.0, 1.0, -5.4, -6.5)" width="10.75" xlink:href="#shape1"/>
    </g>
    <g id="shape1" transform="matrix(1.0, 0.0, 0.0, 1.0, 5.4, 6.5)">
      <path d="M0.0 -6.0 Q2.0 -6.0 3.45 -4.25 4.85 -2.5 4.85 0.0 4.85 2.5 3.45 4.25 2.0 6.0 0.0 6.0 -2.05 6.0 -3.45 4.25 -4.9 2.5 -4.9 0.0 -4.9 -2.5 -3.45 -4.25 -2.05 -6.0 0.0 -6.0" fill="#ffffff" fill-rule="evenodd" stroke="none"/>
      <path d="M0.0 -6.0 Q2.0 -6.0 3.45 -4.25 4.85 -2.5 4.85 0.0 4.85 2.5 3.45 4.25 2.0 6.0 0.0 6.0 -2.05 6.0 -3.45 4.25 -4.9 2.5 -4.9 0.0 -4.9 -2.5 -3.45 -4.25 -2.05 -6.0 0.0 -6.0 Z" fill="none" stroke="#666666" stroke-linecap="round" stroke-linejoin="round" stroke-width="1.0"/>
      <path d="M0.0 -0.1 L0.2 0.4 Q0.35 0.65 0.6 0.7 L1.0 0.4 1.2 -0.1 1.0 -0.75 0.6 -0.95 Q0.35 -0.95 0.2 -0.75 L0.0 -0.1 M1.0 -1.85 Q1.65 -1.9 2.15 -1.25 2.65 -0.6 2.65 0.4 2.65 1.35 2.15 2.0 1.65 2.65 1.0 2.65 0.3 2.65 -0.2 2.0 -0.65 1.35 -0.65 0.4 -0.65 -0.6 -0.2 -1.25 0.3 -1.9 1.0 -1.85" fill="#000000" fill-rule="evenodd" stroke="none"/>
      <path d="M0.0 -0.1 L0.2 -0.75 Q0.35 -0.95 0.6 -0.95 L1.0 -0.75 1.2 -0.1 1.0 0.4 0.6 0.7 Q0.35 0.65 0.2 0.4 L0.0 -0.1" fill="#ffffff" fill-rule="evenodd" stroke="none"/>
    </g>
    <g id="shape2" transform="matrix(1.0, 0.0, 0.0, 1.0, 7.65, -2.75)">
      <path d="M5.4 3.25 L5.4 5.15 -5.5 6.25 -5.5 4.0 5.4 3.25" fill="#ffffff" fill-rule="evenodd" stroke="none"/>
      <path d="M-5.5 4.0 L-5.5 6.25 5.4 5.15 5.4 3.25 6.8 3.4 Q7.95 5.7 3.85 9.9 1.15 6.5 -2.15 8.65 L-3.95 9.95 Q-6.45 8.05 -7.0 6.6 -7.55 5.1 -6.3 4.2 L-5.5 4.0" fill="#000000" fill-rule="evenodd" stroke="none"/>
      <path d="M-3.95 9.95 L-2.15 8.65 Q1.15 6.5 3.85 9.9 2.4 10.95 0.55 11.05 -1.6 11.05 -3.95 9.95" fill="#cc0000" fill-rule="evenodd" stroke="none"/>
      <path d="M-5.5 4.0 L-6.3 4.2 Q-7.55 5.1 -7.0 6.6 -6.45 8.05 -3.95 9.95 -1.6 11.05 0.55 11.05 2.4 10.95 3.85 9.9 7.95 5.7 6.8 3.4 L5.4 3.25 -5.5 4.0 Z" fill="none" stroke="#333333" stroke-linecap="round" stroke-linejoin="round" stroke-width="1.0"/>
    </g>
    <g id="sprite1" transform="matrix(1.0, 0.0, 0.0, 1.0, 11.5, 14.85)">
      <use height="12.5" transform="matrix(0.0379, 0.0, 0.0, 0.0423, 4.259, 5.9962)" width="13.2" xlink:href="#sprite2"/>
    </g>
    <g id="sprite2" transform="matrix(1.0, 0.0, 0.0, 1.0, 6.35, 6.0)">
      <use height="12.5" transform="matrix(1.0, 0.0, 0.0, 1.0, -6.35, -6.0)" width="13.2" xlink:href="#shape3"/>
    </g>
    <g id="shape3" transform="matrix(1.0, 0.0, 0.0, 1.0, 6.35, 6.0)">
      <path d="M2.45 -1.55 L6.85 -0.9 3.65 2.15 4.4 6.5 0.5 4.45 -3.45 6.5 -2.7 2.15 -5.85 -0.9 -1.5 -1.55 0.5 -5.5 2.45 -1.55" fill="#660000" fill-rule="evenodd" stroke="none"/>
      <path d="M6.35 -1.4 L3.15 1.65 3.9 6.0 0.0 3.95 -3.95 6.0 -3.2 1.65 -6.35 -1.4 -2.0 -2.05 0.0 -6.0 1.95 -2.05 6.35 -1.4" fill="#ffcc00" fill-rule="evenodd" stroke="none"/>
    </g>
  </defs>
</svg>
